arb/images/icons/2.svg

<svg width="106" height="100" viewBox="0 0 106 100" fill="none" xmlns="http://www.w3.org/2000/svg">
<g clip-path="url(#clip0)">
<path d="M65.0839 16.3397L54.9532 20.9148L50.378 31.0456L45.7211 20.9148L35.6721 16.3397L45.7211 11.7645L50.378 1.63379L54.9532 11.7645L65.0839 16.3397Z" stroke="#E63946" stroke-width="3" stroke-miterlimit="10" stroke-linecap="round" stroke-linejoin="round"/>
<path d="M33.2212 30.8823L24.7245 34.7222L20.9663 43.1372L17.1265 34.7222L8.71143 30.8823L17.1265 27.0425L20.9663 18.6274L24.7245 27.0425L33.2212 30.8823Z" stroke="#E63946" stroke-width="3" stroke-miterlimit="10" stroke-linecap="round" stroke-linejoin="round"/>
<path d="M21.9467 58.4152L15.1657 61.4381L12.1428 68.2192L9.11991 61.4381L2.33887 58.4152L9.11991 55.3107L12.1428 48.6113L15.1657 55.3107L21.9467 58.4152Z" stroke="#E63946" stroke-width="3" stroke-miterlimit="10" stroke-linecap="round" stroke-linejoin="round"/>
<path d="M56.7506 72.3037H39.267C35.0186 72.3037 31.5872 75.8985 31.914 80.2285C32.1591 84.1501 35.5905 87.173 39.5121 87.173H53.8094C58.548 90.6044 64.1853 92.4835 70.0676 92.4835H71.1297C72.7637 92.4835 74.316 92.3201 75.8683 92.075L87.4696 90.0325V87.173V81.8625V72.3037" stroke="#E63946" stroke-width="3" stroke-miterlimit="10" stroke-linecap="round" stroke-linejoin="round"/>
<path d="M43.6787 72.3039H58.9565C63.2049 72.3039 66.6362 68.7092 66.3094 64.3791C66.146 61.9281 64.7571 59.8856 62.7964 58.6602" stroke="#E63946" stroke-width="3" stroke-miterlimit="10" stroke-linecap="round" stroke-linejoin="round"/>
<path d="M30.8518 61.6016L23.1721 74.8369C21.0479 78.5133 22.4368 83.2519 26.2767 85.2127C28.4826 86.2748 30.9335 86.1114 32.976 85.0493" stroke="#E63946" stroke-width="3" stroke-miterlimit="10" stroke-linecap="round" stroke-linejoin="round"/>
<path d="M103.483 51.4707H87.3878V92.4021H103.483V51.4707Z" stroke="#E63946" stroke-width="3" stroke-miterlimit="10" stroke-linecap="round" stroke-linejoin="round"/>
<path d="M58.7931 44.7714L55.8519 44.6897C53.2375 44.608 50.6231 45.3433 48.4173 46.8956L35.5088 55.9642C33.9565 57.0263 32.731 58.4152 31.8323 60.0492L23.6624 74.1832" stroke="#E63946" stroke-width="3" stroke-miterlimit="10" stroke-linecap="round" stroke-linejoin="round"/>
<path d="M87.3878 56.4543L74.1525 47.3039C73.4989 46.8138 72.7636 46.487 72.0283 46.1602" stroke="#E63946" stroke-width="3" stroke-miterlimit="10" stroke-linecap="round" stroke-linejoin="round"/>
<path d="M42.2081 87.0913L23.6624 98.3658L25.2963 84.5586" stroke="#E63946" stroke-width="3" stroke-miterlimit="10" stroke-linecap="round" stroke-linejoin="round"/>
<path d="M33.4663 75.1632L75.7049 24.5096C77.6657 22.1403 81.1787 21.8952 83.548 23.856C85.9173 25.8167 86.1624 29.3298 84.2016 31.6991L50.133 72.3037" stroke="#E63946" stroke-width="3" stroke-miterlimit="10" stroke-linecap="round" stroke-linejoin="round"/>
<path d="M83.3029 32.7616C83.7931 32.2714 84.2016 31.6178 84.5284 30.9642C84.8552 30.3106 84.9369 29.5753 84.9369 28.7583C84.9369 28.0231 84.7735 27.2878 84.5284 26.5525C84.2833 25.8989 83.8748 25.2453 83.3029 24.7551C82.731 24.2649 82.1591 23.8564 81.5055 23.5296C80.8519 23.2028 80.1166 23.1211 79.2996 23.1211C78.5643 23.1211 77.829 23.2845 77.0937 23.5296C76.3584 23.7747 75.7865 24.1832 75.2963 24.7551C74.8061 25.2453 74.3976 25.8989 74.0709 26.5525C73.8258 27.2061 73.6624 27.9414 73.6624 28.7583C73.6624 29.4936 73.8258 30.2289 74.0709 30.9642C74.3159 31.6995 74.7244 32.2714 75.2963 32.7616L75.7048 33.1701" stroke="#E63946" stroke-width="3" stroke-miterlimit="10" stroke-linecap="round" stroke-linejoin="round"/>
</g>
<defs>
<clipPath id="clip0">
<rect width="104.412" height="100" fill="white" transform="translate(0.704834)"/>
</clipPath>
</defs>
</svg>

<svg width="106" height="100" fill="none" xmlns="http://www.w3.org/2000/svg"><g clip-path="url(#clip0)" stroke="#E63946" stroke-width="3" stroke-miterlimit="10" stroke-linecap="round" stroke-linejoin="round"><path d="M65.084 16.34l-10.13 4.575-4.576 10.13-4.657-10.13-10.049-4.575 10.05-4.575 4.656-10.131 4.575 10.13 10.13 4.576zM33.221 30.882l-8.496 3.84-3.759 8.415-3.84-8.415-8.415-3.84 8.415-3.84 3.84-8.415 3.758 8.416 8.497 3.84zM21.947 58.415l-6.781 3.023-3.023 6.781-3.023-6.78-6.781-3.024 6.78-3.104 3.024-6.7 3.023 6.7 6.78 3.104zM56.75 72.304H39.268c-4.248 0-7.68 3.594-7.353 7.924.245 3.922 3.676 6.945 7.598 6.945H53.81c4.739 3.431 10.376 5.31 16.259 5.31h1.062c1.634 0 3.186-.163 4.738-.408l11.602-2.043V72.303"/><path d="M43.679 72.304h15.277c4.249 0 7.68-3.595 7.353-7.925-.163-2.45-1.552-4.493-3.513-5.719m-31.944 2.942l-7.68 13.235c-2.124 3.676-.735 8.415 3.105 10.376 2.206 1.062 4.656.898 6.699-.164m70.507-33.579H87.388v40.932h16.095V51.471z"/><path d="M58.793 44.771l-2.941-.081a12.228 12.228 0 00-7.435 2.206L35.51 55.964c-1.553 1.062-2.778 2.451-3.677 4.085l-8.17 14.134m63.725-17.729l-13.236-9.15c-.653-.49-1.388-.817-2.124-1.144m-29.82 40.931L23.662 98.366l1.634-13.807"/><path d="M33.466 75.163L75.705 24.51c1.96-2.37 5.474-2.615 7.843-.654 2.37 1.96 2.614 5.474.654 7.843L50.133 72.304"/><path d="M83.303 32.762c.49-.49.899-1.144 1.225-1.798.327-.653.409-1.389.409-2.206 0-.735-.163-1.47-.409-2.206-.245-.653-.653-1.307-1.225-1.797-.572-.49-1.144-.899-1.797-1.225-.654-.327-1.39-.409-2.206-.409-.736 0-1.471.164-2.206.409a3.942 3.942 0 00-1.798 1.225c-.49.49-.898 1.144-1.225 1.797a6.238 6.238 0 00-.409 2.206c0 .736.164 1.47.409 2.206a3.941 3.941 0 001.225 1.798l.409.408"/></g><defs><clipPath id="clip0"><path fill="#fff" transform="translate(.705)" d="M0 0h104.412v100H0z"/></clipPath></defs></svg>
